en/_assets/smartwebsecurity/plug.svg

<svg xmlns="http://www.w3.org/2000/svg" xmlns:xlink="http://www.w3.org/1999/xlink" width="16" height="16" class="yc-icon" fill="currentColor" stroke="none" aria-hidden="true"><svg viewBox="0 0 18 16" xmlns="http://www.w3.org/2000/svg"><path fill-rule="evenodd" d="M15.5303 1.53033C15.8232 1.23744 15.8232 0.762563 15.5303 0.46967C15.2374 0.176777 14.7626 0.176777 14.4697 0.46967L13.1801 1.75929C12.4932 1.28066 11.658 0.999998 10.7574 0.999998C9.63214 0.999998 8.55301 1.44699 7.75736 2.24264L7.17707 2.82293C6.80313 3.19687 6.80313 3.80313 7.17707 4.17707L11.8229 8.82293C12.1969 9.19687 12.8031 9.19687 13.1771 8.82293L13.7574 8.24264C14.553 7.44699 15 6.36786 15 5.24264C15 4.34196 14.7193 3.50684 14.2407 2.81995L15.5303 1.53033ZM7.03033 6.46967C7.32322 6.76256 7.32322 7.23744 7.03033 7.53033L5.78033 8.78033L7.21968 10.2197L8.46968 8.96968C8.76257 8.67679 9.23745 8.67679 9.53034 8.96968C9.82323 9.26257 9.82323 9.73745 9.53034 10.0303L8.28034 11.2803L8.82293 11.8229C9.19687 12.1969 9.19687 12.8031 8.82293 13.1771L8.24264 13.7574C7.44699 14.553 6.36786 15 5.24264 15C4.34196 15 3.50684 14.7193 2.81995 14.2407L1.53033 15.5303C1.23744 15.8232 0.762563 15.8232 0.46967 15.5303C0.176777 15.2374 0.176777 14.7626 0.46967 14.4697L1.75929 13.1801C1.28066 12.4932 1 11.658 1 10.7574C1 9.63214 1.44699 8.55301 2.24264 7.75736L2.82293 7.17707C3.19687 6.80313 3.80313 6.80313 4.17707 7.17707L4.71967 7.71967L5.96967 6.46967C6.26256 6.17678 6.73744 6.17678 7.03033 6.46967ZM3.5 8.62132L3.3033 8.81802C2.78896 9.33236 2.5 10.03 2.5 10.7574C2.5 12.2721 3.72792 13.5 5.24264 13.5C5.97004 13.5 6.66763 13.211 7.18198 12.6967L7.37868 12.5L3.5 8.62132ZM12.6967 7.18198L12.5 7.37868L8.62132 3.5L8.81802 3.3033C9.33237 2.78895 10.03 2.5 10.7574 2.5C12.2721 2.5 13.5 3.72792 13.5 5.24264C13.5 5.97003 13.211 6.66763 12.6967 7.18198Z" fill="currentColor"></path></svg></svg>

<svg xmlns="http://www.w3.org/2000/svg" width="16" height="16" fill="currentColor" aria-hidden="true" class="yc-icon">
    <svg xmlns="http://www.w3.org/2000/svg" viewBox="0 0 18 16">
        <path fill-rule="evenodd" d="M15.53 1.53A.75.75 0 0 0 14.47.47l-1.29 1.29a4.243 4.243 0 0 0-5.423.483l-.58.58a.958.958 0 0 0 0 1.354l4.646 4.646a.958.958 0 0 0 1.354 0l.58-.58a4.243 4.243 0 0 0 .484-5.423l1.29-1.29Zm-8.5 4.94a.75.75 0 0 1 0 1.06L5.78 8.78l1.44 1.44 1.25-1.25a.75.75 0 0 1 1.06 1.06l-1.25 1.25.543.543a.958.958 0 0 1 0 1.354l-.58.58a4.243 4.243 0 0 1-5.423.484l-1.29 1.29A.75.75 0 0 1 .47 14.47l1.29-1.29a4.243 4.243 0 0 1 .483-5.423l.58-.58a.958.958 0 0 1 1.354 0l.543.543 1.25-1.25a.75.75 0 0 1 1.06 0ZM3.5 8.62l-.197.197a2.743 2.743 0 0 0 3.879 3.879l.197-.197L3.5 8.621Zm9.197-1.439-.197.197L8.621 3.5l.197-.197a2.743 2.743 0 0 1 3.879 3.879Z"/>
    </svg>
</svg>
